X:1
T:Anne Steele, 1760 The Savior's Invitation 86. 86. (C. M.)
T:B b Major Oliver Holden, 1800
T:Reviving Hope No copyright. Transcribed from Plain Psalmody, 1800.
%%score [ 1 2 3 4 ]
L:1/8
M:4/4
K:Bb
V:1 treble nm="Treble" snm="Tr."
V:2 treble nm="Counter" snm="C."
V:3 treble-8 nm="Tenor" snm="T."
V:4 bass nm="Bass" snm="B."
V:1
 B4 | d2 d2 d2 c2 | B2 A2 B3 c | B2 G2 F2 c2 | B6 z2 | z8 | z4 z2 d2 | f2 d2 B2 F2 | G4 A4 | %9
w: ||||||Ye|doubt- ing souls, dis-|miss your|
 c6 B2 | (B4 Be) dc | B4 c4 | d8 |] %13
w: fear, Hope|smiles~ * * re- *|vi- ving|round.|
V:2
 D4 | F2 F2 F2 E2 | D2 E2 D3 D | E2 E2 F2 E2 | D6 z2 | z8 | z8 | z4 z2 F2 | G2 G2 F2 F2 | %9
w: 1.~The|Sav- ior calls, let|eve- ry ear At-|tend the heaven- ly|sound;|||Ye|doubt- ing souls, dis-|
 E2 G2 F2 F2 | G4 G4 | F4 E4 | D8 |] %13
w: miss your fear, Hope|smiles~ re-|vi- ving|round.|
V:3
 F4 | B2 B2 B2 c2 | d2 c2 B3 F | G2 c2 B2 A2 | B6 z2 | z4 z2 d2 | f2 d2 B2 F2 | B2 B2 d2 d2 | %8
w: |||||Ye|doubt- ing souls, dis-|miss your fear, Ye|
 e2 e2 c2 c2 | e2 =e2 f2 f2 | (e4 eg) fe | d4 c4 | B8 |] %13
w: doubt- ing souls, dis-|miss your fear, Hope|smiles~ * * re- *|vi- ving|round.|
V:4
 B,,4 | B,,2 B,,2 D,2 F,2 | B,2 F,2 D,3 D, | E,2 E,2 D,2 F,2 | B,,6 F,2 | B,2 F,2 D,2 B,,2 | %6
w: ||||* Ye|doubt- ing souls, dis-|
 B,,4 B,,4 | B,,4 B,,4 | E,2 E,2 F,2 F,2 | C2 C,2 F,2 D,2 | E,4 E,4 | F,4 F,4 | B,,8 |] %13
w: miss your|fear, Ye|doubt- ing souls, dis-|miss your fear, Hope|smiles re-|vi- ving|round.|

